lib/logo_tmp/nrk-logo-nrk-jazz.svg

<svg width="74" height="24" viewBox="0 0 74 24" fill="none" xmlns="http://www.w3.org/2000/svg">
<path d="M6.10352e-05 18.0018V6.00286H3.93725V18.0018H6.10352e-05ZM9.29387 7.91255L11.5581 18.0018H7.24923L4.54555 6.00286H6.96224C7.51641 5.99567 8.05412 6.19102 8.47456 6.55216C8.89568 6.89815 9.18501 7.37847 9.29387 7.91255ZM12.1496 18.0018V6.00286H16.0868V18.0018H12.1496ZM19.0605 10.5659C18.6363 10.57 18.2188 10.459 17.8526 10.2447C17.4913 10.0359 17.1912 9.73573 16.9823 9.37437C16.7678 9.0081 16.6568 8.59053 16.661 8.16609C16.6562 7.74423 16.7673 7.32915 16.9823 6.9662C17.1934 6.60876 17.4932 6.31186 17.8526 6.10429C18.2189 5.89027 18.6363 5.77928 19.0605 5.78315C19.4823 5.77861 19.8972 5.8897 20.2603 6.10429C20.6161 6.31368 20.9127 6.61033 21.1221 6.9662C21.3369 7.32925 21.448 7.74426 21.4434 8.16609C21.4473 8.5905 21.3363 9.008 21.1221 9.37437C20.9149 9.73415 20.618 10.0341 20.2603 10.2447C19.8972 10.4597 19.4819 10.5709 19.06 10.5659H19.0605ZM22.0517 18.0018V6.00286H25.9892V18.0018H22.0517ZM30.9738 12.56C30.9849 12.5716 31.0693 12.7097 31.2272 12.974C31.3851 13.2384 31.5907 13.5765 31.844 13.9881C32.0975 14.3995 32.3649 14.836 32.6464 15.2978C32.9278 15.7595 33.1927 16.1961 33.4409 16.6075C33.6882 17.019 33.9698 17.4837 34.2858 18.0018H29.9599C29.6893 17.5624 29.4442 17.1652 29.2245 16.8103C29.0049 16.4554 28.7714 16.0724 28.5239 15.6611C28.2759 15.2503 28.0307 14.8503 27.7883 14.4612C27.5459 14.0722 27.3376 13.7314 27.1633 13.4388C26.9883 13.1461 26.8671 12.9489 26.7997 12.8473C26.6326 12.5952 26.5337 12.3041 26.5127 12.0023C26.5295 11.7127 26.6227 11.4327 26.7828 11.1909C26.8504 11.0782 26.9743 10.8782 27.1546 10.5909C27.3348 10.3036 27.5461 9.96282 27.7883 9.56849C28.0305 9.17416 28.2757 8.77137 28.5239 8.36014C28.7721 7.94892 29.0056 7.56301 29.2245 7.20248C29.4446 6.84232 29.6897 6.44236 29.9599 6.00258H34.2858L30.9397 11.4613C30.8361 11.6233 30.7778 11.8101 30.7707 12.0023C30.7818 12.2041 30.8523 12.3981 30.9732 12.56H30.9738Z" fill="white"/>
<path d="M40.508 15.2687C40.5111 15.4648 40.4769 15.6596 40.4071 15.8427C40.3439 16.0053 40.2463 16.1521 40.1211 16.2732C39.991 16.3953 39.836 16.4875 39.6668 16.5433C39.4714 16.6078 39.2668 16.6391 39.0612 16.6362C38.9266 16.6362 38.8004 16.6305 38.6826 16.6193C38.5649 16.608 38.4471 16.594 38.3293 16.5771C38.2116 16.5602 38.0939 16.5404 37.9761 16.5177C37.8583 16.495 37.7378 16.4698 37.6144 16.4421C37.491 16.4139 37.3676 16.3829 37.2443 16.3492L37.3788 17.8686C37.5359 17.9136 37.6873 17.9557 37.8331 17.9949C37.9789 18.0346 38.1247 18.0681 38.2705 18.0965C38.4206 18.125 38.5723 18.1447 38.7247 18.1553C38.8817 18.1666 39.0556 18.1723 39.2462 18.1725C39.6351 18.1786 40.0231 18.1302 40.3986 18.0287C40.705 17.9452 40.9932 17.805 41.2482 17.6154C41.4782 17.4413 41.6749 17.2268 41.8287 16.9823C41.9815 16.737 42.095 16.4691 42.1651 16.1885C42.2391 15.8932 42.2758 15.5898 42.2744 15.2853V6H40.508V15.2687Z" fill="white"/>
<path d="M52.2339 16.9232C52.1109 16.9345 51.9871 16.9158 51.8728 16.8688C51.7586 16.8218 51.6574 16.7478 51.5777 16.6531C51.4218 16.3826 51.3569 16.0688 51.3927 15.7583L51.4264 12.2806C51.4301 11.916 51.3848 11.5525 51.2918 11.2001C51.21 10.8909 51.0732 10.5991 50.888 10.3388C50.7007 10.0844 50.463 9.87175 50.1898 9.71416C49.8723 9.5334 49.5291 9.40253 49.172 9.32614C48.7354 9.23149 48.2896 9.1862 47.843 9.19108C47.4886 9.19081 47.1346 9.21328 46.7831 9.25833C46.451 9.30047 46.1222 9.36541 45.7989 9.45274C45.4991 9.53421 45.2043 9.63287 44.9157 9.7482L44.7138 11.1832C44.9942 11.0821 45.2606 10.9977 45.5129 10.9299C45.7653 10.8622 46.0092 10.806 46.2448 10.7611C46.4755 10.717 46.7086 10.6861 46.9429 10.6686C47.1725 10.6517 47.3996 10.6431 47.6243 10.6429C47.9673 10.6357 48.3097 10.6755 48.6421 10.7611C48.8846 10.822 49.1076 10.9442 49.2898 11.1159C49.4521 11.2828 49.5681 11.4895 49.6262 11.7153C49.698 11.9936 49.732 12.2804 49.7272 12.5678L49.7252 12.9913L47.7589 13.1249C47.0863 13.1438 46.4237 13.2928 45.8073 13.5636C45.3462 13.7663 44.9481 14.09 44.6549 14.5006C44.4062 14.8661 44.2742 15.2988 44.2764 15.7414C44.2733 16.1568 44.3745 16.5662 44.5708 16.9319C44.7767 17.3073 45.0864 17.615 45.4625 17.818C45.9214 18.0576 46.4343 18.1739 46.9513 18.1556C47.4357 18.1667 47.9179 18.0867 48.3729 17.9196C48.7662 17.7651 49.1261 17.5358 49.4328 17.2442C49.5492 17.1323 49.6596 17.0142 49.7636 16.8906C49.7963 17.0654 49.8579 17.2336 49.9459 17.388C50.0959 17.6464 50.3264 17.8481 50.602 17.962C50.9066 18.0849 51.2327 18.1451 51.561 18.1393C51.6619 18.1393 51.76 18.1362 51.8554 18.1309C51.949 18.1252 52.0419 18.111 52.133 18.0884C52.2227 18.0659 52.3037 18.0465 52.3769 18.0293C52.4428 18.0147 52.5075 17.9949 52.5703 17.9702L52.7554 16.8394C52.6625 16.8712 52.5667 16.8939 52.4694 16.9069C52.3913 16.9171 52.3126 16.9226 52.2339 16.9232ZM49.4328 16.1635C49.2504 16.3082 49.0529 16.4329 48.8439 16.5352C48.6357 16.6367 48.4151 16.7105 48.1879 16.7547C47.9522 16.8001 47.7128 16.8226 47.4728 16.8219C47.1987 16.8299 46.926 16.778 46.6737 16.67C46.4684 16.5807 46.2953 16.4306 46.1775 16.2397C46.0609 16.0374 46.0026 15.8065 46.0092 15.5729C45.993 15.2913 46.0699 15.0123 46.2279 14.7791C46.4111 14.5647 46.6593 14.4165 46.9345 14.3571C47.3643 14.2557 47.8054 14.2104 48.2467 14.2223H49.7199L49.7123 15.8979C49.6269 15.9942 49.5333 16.0832 49.4328 16.1635Z" fill="white"/>
<path d="M60.7126 10.5754L60.5107 9.37645H54.0169L53.815 10.7271H58.7005L53.6639 16.8385L53.8658 17.9865H60.7297L60.9147 16.619H55.7727L60.7126 10.5754Z" fill="white"/>
<path d="M64.2514 16.6193L69.1918 10.5757L68.9897 9.37676H62.4959L62.294 10.7274H67.1792L62.1426 16.8388L62.3445 17.9868H69.2084L69.3934 16.6193H64.2514Z" fill="white"/>
</svg>

<svg xmlns="http://www.w3.org/2000/svg" viewBox="0 0 74 24"><path fill="#fff" d="M0 18.002v-12h3.937v12H0Zm9.294-10.09 2.264 10.09H7.25l-2.703-12h2.416a2.276 2.276 0 0 1 1.513.55c.42.346.71.826.819 1.36Zm2.856 10.09v-12h3.937v12H12.15Zm6.91-7.436a2.382 2.382 0 0 1-2.4-2.4 2.303 2.303 0 0 1 .322-1.2 2.411 2.411 0 0 1 3.278-.862c.356.21.653.506.862.862.215.363.326.778.321 1.2a2.4 2.4 0 0 1-1.183 2.079 2.303 2.303 0 0 1-1.2.32Zm2.992 7.436v-12h3.937v12h-3.937Zm8.922-5.442c.01.012.095.15.253.414s.364.602.617 1.014a320.187 320.187 0 0 1 1.597 2.62c.247.411.529.876.845 1.394H29.96c-.27-.44-.516-.837-.736-1.192-.22-.355-.453-.738-.7-1.149-.248-.41-.493-.81-.736-1.2-.242-.389-.45-.73-.625-1.022a18.04 18.04 0 0 0-.363-.592 1.75 1.75 0 0 1-.287-.845c.016-.29.11-.57.27-.811.067-.113.191-.313.372-.6a182.106 182.106 0 0 0 1.37-2.23c.247-.412.48-.798.7-1.159l.735-1.2h4.326l-3.346 5.46a1.078 1.078 0 0 0-.17.54c.012.202.082.396.203.558ZM40.508 15.269c.003.196-.031.39-.1.574-.064.162-.162.31-.287.43-.13.122-.285.215-.454.27-.196.065-.4.096-.606.093-.134 0-.26-.005-.378-.017a7.607 7.607 0 0 1-.707-.101 9.058 9.058 0 0 1-.732-.169l.135 1.52c.157.045.308.087.454.126.146.04.292.073.438.101.15.029.301.049.454.06.157.01.33.016.521.017.39.006.777-.043 1.153-.144.306-.084.594-.224.85-.414a2.39 2.39 0 0 0 .58-.633c.152-.245.266-.513.336-.793.074-.296.11-.6.11-.904V6h-1.767v9.269ZM52.234 16.923a.765.765 0 0 1-.656-.27 1.458 1.458 0 0 1-.185-.895l.033-3.477a4.073 4.073 0 0 0-.134-1.08 2.659 2.659 0 0 0-.404-.862 2.285 2.285 0 0 0-.698-.625 3.564 3.564 0 0 0-1.018-.388 5.965 5.965 0 0 0-1.329-.135c-.354 0-.708.022-1.06.067-.332.042-.66.107-.984.195-.3.081-.595.18-.883.295l-.202 1.435a10.067 10.067 0 0 1 1.53-.422c.231-.044.465-.075.699-.092.23-.017.457-.026.681-.026.343-.007.686.032 1.018.118.243.061.466.183.648.355.162.167.278.373.336.6.072.278.106.564.101.852l-.002.423-1.966.134a5.216 5.216 0 0 0-1.952.439c-.46.202-.859.526-1.152.937-.249.365-.38.798-.379 1.24-.003.416.098.825.295 1.19.206.376.515.684.892.887.458.24.971.356 1.488.338.485.01.967-.07 1.422-.236a3.277 3.277 0 0 0 1.06-.676c.116-.112.227-.23.33-.353.033.174.095.343.183.497.15.258.38.46.656.574.305.123.63.183.959.177.1 0 .199-.003.294-.008.094-.006.187-.02.278-.043l.244-.059c.066-.014.13-.034.193-.059l.185-1.13a1.494 1.494 0 0 1-.286.067c-.078.01-.156.016-.235.016Zm-2.801-.76a3.24 3.24 0 0 1-.59.372 2.654 2.654 0 0 1-.655.22 3.723 3.723 0 0 1-.715.067 1.89 1.89 0 0 1-.8-.152 1.098 1.098 0 0 1-.495-.43 1.264 1.264 0 0 1-.169-.667c-.016-.282.06-.56.219-.794.183-.214.431-.363.706-.422.43-.101.871-.147 1.313-.135h1.473l-.008 1.676a2.257 2.257 0 0 1-.28.265ZM60.713 10.575l-.202-1.199h-6.494l-.202 1.351h4.886l-5.037 6.111.202 1.148h6.864l.185-1.367h-5.142l4.94-6.044ZM64.251 16.62l4.94-6.044-.201-1.2h-6.494l-.202 1.351h4.885l-5.036 6.112.201 1.148h6.864l.185-1.368h-5.142Z"/></svg>
